!!!COM:	la Rue, Pierre de
!!!CDT:	~1452///-1518/11/20
!!!OPR:	Missa Incessament
!!!ONM:	5
!!!OTL:	Agnus Dei
!!!AGN:	Mass; Agnus Dei
!!!SCT:	Rue1016e
!!!SCA:	Rue1016e
!!!voices:	5
!!!voices-OPR:	5
**kern	**kern	**kern	**kern	**kern
*staff5	*staff4	*staff3	*staff2	*staff1
*Ivox	*Ivox	*Ivox	*Ivox	*Ivox
*I"Bassus2	*I"Bassus1	*I"Tenor	*I"Contra	*I"Discantus
*I'B2	*I'B1	*I'T	*I'C	*I'D
*>[A,B]	*>[A,B]	*>[A,B]	*>[A,B]	*>[A,B]
*>A	*>A	*>A	*>A	*>A
*clefF4	*clefF4	*clefGv2	*clefGv2	*clefG2
*k[]	*k[]	*k[]	*k[]	*k[]
*M2/1	*M2/1	*M2/1	*M2/1	*M2/1
*met(C2)	*met(C2)	*met(C2)	*met(C2)	*met(C2)
!!section: Agnus Dei I[, II?]
!!!OMD: Agnus Dei I[, II?]
!LO:TX:X=-40:Z=8:t=[Canon at the upper fourth]	!	!	!	!
=1-	=1-	=1-	=1-	=1-
0r	0r	0r	0r	0g
=2.	=2.	=2.	=2.	=2.
0G	0r	0r	0r	2.e/
.	.	.	.	4f/
.	.	.	.	1d
=3	=3	=3	=3	=3
2.E\	0r	0r	0r	1c
4F\	.	.	.	.
1D	.	.	.	1f
=4.	=4.	=4.	=4.	=4.
2.C/	0c	0r	0r	2.e/
4D\	.	.	.	4f/
2E\	.	.	.	2g/
[2F\	.	.	.	[2a/
=5	=5	=5	=5	=5
4F\]	2.A\	0r	0r	4a/]
4E\	.	.	.	4g/
1D	.	.	.	2f/
.	4B\	.	.	.
.	1G	.	.	1e
2C/	.	.	.	.
=6.	=6.	=6.	=6.	=6.
[0D	2.F\	0d	0r	0d
.	4G\	.	.	.
.	2A\	.	.	.
.	[2B\	.	.	.
=7	=7	=7	=7	=7
0D]	4B\]	2.B\	0r	1r
.	4A\	.	.	.
.	1G	.	.	.
.	.	4c\	.	.
.	.	1A	.	1a
.	2F#i\	.	.	.
=8.	=8.	=8.	=8.	=8.
0r	[0G	0G	0g	2.b\
.	.	.	.	4cc\
.	.	.	.	4dd\
.	.	.	.	4ee\
.	.	.	.	[2dd\
=9	=9	=9	=9	=9
0r	0G]	1r	2.e\	4dd\]
.	.	.	.	4cc\
.	.	.	.	1cc
.	.	.	4f\	.
.	.	1G	1d	.
.	.	.	.	2b\
=10.	=10.	=10.	=10.	=10.
0r	0r	0A	2.c\	0cc
.	.	.	4d\	.
.	.	.	2e\	.
.	.	.	[2f\	.
=11	=11	=11	=11	=11
0r	0r	2.F/	4f\]	2.a/
.	.	.	4e\	.
.	.	.	1d	.
.	.	4G/	.	4b\
.	.	1E	.	1g
.	.	.	2c#i\	.
=12.	=12.	=12.	=12.	=12.
0r	0r	[0D	0d	2.f/
.	.	.	.	4g/
.	.	.	.	2a/
.	.	.	.	[2b-i\
=13	=13	=13	=13	=13
0r	0r	0D]	2.B\	4b-\]
.	.	.	.	4a/
.	.	.	.	1g
.	.	.	4c\	.
.	.	.	1A	.
.	.	.	.	2f#i/
=14.	=14.	=14.	=14.	=14.
0G	0r	0r	0G	[0g
=15	=15	=15	=15	=15
1G	0r	1r	1r	0g]
1G	.	1G	1g	.
=16.	=16.	=16.	=16.	=16.
1C	0c	1G	1g	0r
1C	.	1G	1e	.
=17	=17	=17	=17	=17
1.F	1c	1.A	1c	0r
.	1c	.	1A	.
2E\	.	2G/	.	.
=18.	=18.	=18.	=18.	=18.
2D\	1F	2F/	2B-i\	0r
4C/	.	4E/	4A/	.
4BB/	.	4D/	4G/	.
1AA	1F	1C	4F/	.
.	.	.	4G/	.
.	.	.	4A/	.
.	.	.	4F/	.
=19	=19	=19	=19	=19
[0GG	1.B-i	[0D	0G	0dd
.	2A\	.	.	.
=20.	=20.	=20.	=20.	=20.
0GG]	2G\	0D]	1r	1dd
.	4F\	.	.	.
.	4E\	.	.	.
.	1D	.	1g	1dd
=21	=21	=21	=21	=21
0r	[0C	1r	2g\	1g
.	.	.	2g\	.
.	.	1G	1e	1g
=22.	=22.	=22.	=22.	=22.
0r	0C]	1A	2.c\	1.cc
.	.	.	4d\	.
.	.	1G	4e\	.
.	.	.	4f\	.
.	.	.	4g\	2b\
.	.	.	4e\	.
=23	=23	=23	=23	=23
0r	0r	2F/	2f\	2a/
.	.	2G/	1d	4g/
.	.	.	.	4f/
.	.	1A	.	1e
.	.	.	2c#i\	.
=24.	=24.	=24.	=24.	=24.
0G	0r	1B	0d	0d
.	.	1G	.	.
=25	=25	=25	=25	=25
1G	0r	1r	1r	0r
1G	.	1G	1g	.
=26.	=26.	=26.	=26.	=26.
1C	0c	1G	1g	0r
1C	.	1G	1e	.
=27	=27	=27	=27	=27
1.F	1c	2A/	2.c\	0r
.	.	1A	.	.
.	.	.	4B\	.
.	1c	.	2A/	.
2E\	.	2G/	2A/	.
=28.	=28.	=28.	=28.	=28.
2D\	1F	2F/	2B-i\	0r
4C/	.	4E/	4A/	.
4BB/	.	4D/	4G/	.
1AA	1F	1C	4F/	.
.	.	.	4G/	.
.	.	.	4A/	.
.	.	.	4F/	.
=29	=29	=29	=29	=29
[0GG	1.B-i	[0D	0G	0dd
.	2A\	.	.	.
=30.	=30.	=30.	=30.	=30.
0GG]	2G\	0D]	1r	1dd
.	4F\	.	.	.
.	4E\	.	.	.
.	1D	.	1g	1dd
=31	=31	=31	=31	=31
0r	[0C	1r	2g\	1g
.	.	.	2g\	.
.	.	1G	1e	1g
=32.	=32.	=32.	=32.	=32.
0r	0C]	1A	2.c\	1.cc
.	.	.	4d\	.
.	.	1G	4e\	.
.	.	.	4f\	.
.	.	.	4g\	2b\
.	.	.	4e\	.
=33	=33	=33	=33	=33
0r	0r	2F/	2f\	2a/
.	.	2G/	1d	4g/
.	.	.	.	4f/
.	.	1A	.	1e
.	.	.	2c#i\	.
=34.	=34.	=34.	=34.	=34.
0r	0r	2.B\	1d	2.d/
.	.	4c\	.	4e/
.	.	2d\	2d\	2f/
.	.	[2c\	[2e\	2g/
=35	=35	=35	=35	=35
0r	0r	4c\]	4e\]	2a/
.	.	4B\	4d\	.
.	.	4A/	1g	2b\
.	.	4G/	.	.
.	.	1A	.	1cc
.	.	.	2f#i\	.
=36.	=36.	=36.	=36.	=36.
1r	0r	1G	0g	0b
1GG	.	2r	.	.
.	.	2G/	.	.
=37	=37	=37	=37	=37
1AA	0r	2E/	0r	0r
.	.	1F	.	.
1BB	.	.	.	.
.	.	4E/	.	.
.	.	4D/	.	.
=38.	=38.	=38.	=38.	=38.
1C	1r	4E/	0r	0r
.	.	4D/	.	.
.	.	1G	.	.
1AA	1C	.	.	.
.	.	2F#i/	.	.
=39	=39	=39	=39	=39
1GG	1D	0G	0r	0r
2r	1E	.	.	.
2GG/	.	.	.	.
=40.	=40.	=40.	=40.	=40.
1AA	1F	2r	0r	0r
.	.	2c\	.	.
1BB	1D	2B\	.	.
.	.	[2G/	.	.
=41	=41	=41	=41	=41
1C	1C	2G/]	0r	0r
.	.	2.A/	.	.
1AA	2r	.	.	.
.	.	4B\	.	.
.	2C/	4c\	.	.
.	.	4A/	.	.
=42.	=42.	=42.	=42.	=42.
0GG	1D	1B	1r	1r
.	1E	1G	1g	1g
=43	=43	=43	=43	=43
0r	1F	1r	2f\	1a
.	.	.	2.d\	.
.	1D	1F	.	1b
.	.	.	4e\	.
.	.	.	4f\	.
.	.	.	4d\	.
=44.	=44.	=44.	=44.	=44.
0r	0C	1G	2e\	1cc
.	.	.	2e\	.
.	.	2A/	1c	1a
.	.	[2c\	.	.
=45	=45	=45	=45	=45
0r	0r	2c\]	2r	1g
.	.	4B\	2c\	.
.	.	4A/	.	.
.	.	2B\	2d\	2r
.	.	2c\	2e\	2g/
=46.	=46.	=46.	=46.	=46.
0r	0r	1F	1f	1a
.	.	1G	1d	1b
=47	=47	=47	=47	=47
1r	0r	1C	1c	1cc
1D	.	1r	1f	1a
=48.	=48.	=48.	=48.	=48.
1E	0r	0r	2e\	2g/
.	.	.	2.g\	2b\
1F	.	.	.	2a/
.	.	.	4f\	.
.	.	.	4e\	2cc\
.	.	.	4d\	.
=49	=49	=49	=49	=49
1G	1r	0r	2e\	4b\
.	.	.	.	4a/
.	.	.	1d	4g/
.	.	.	.	4f/
1E	1G	.	.	1g
.	.	.	2c#i\	.
=50.	=50.	=50.	=50.	=50.
1D	1A	0r	1d	1f
2r	1B	.	2r	1r
2D\	.	.	2f\	.
=51	=51	=51	=51	=51
1E	1c	0r	2e\	2r
.	.	.	2g\	2g/
1F	1A	.	2f\	2a/
.	.	.	4e\	2cc\
.	.	.	4d\	.
=52.	=52.	=52.	=52.	=52.
1G	1G	1r	2e\	4b\
.	.	.	.	4a/
.	.	.	1d	4g/
.	.	.	.	4f/
1E	2r	1C	.	1g
.	2G\	.	2c\	.
=53	=53	=53	=53	=53
2D\	1A	1F	2d\	2f/
2F\	.	.	2d\	2a/
2E\	1B	2G/	2e\	2g/
2D\	.	2F/	2f\	2b\
=54.	=54.	=54.	=54.	=54.
1C	1c	2G/	1e	2a/
.	.	2E/	.	2.g/
1D	1A	1F	1d	.
.	.	.	.	4f#i/
.	.	.	.	4f#i/
.	.	.	.	4e/
=55	=55	=55	=55	=55
0GGl	0Gl	0Dl	0Bl	0gl
!!LO:LB:i:g=z
=56||	=56||	=56||	=56||	=56||
*>B	*>B	*>B	*>B	*>B
*clefF4	*clefF4	*clefGv2	*clefGv2	*clefG2
*k[]	*k[]	*k[]	*k[]	*k[]
*M2/1	*M2/1	*M2/1	*M2/1	*M2/1
*met(C2)	*met(C2)	*met(C2)	*met(C2)	*met(C2)
!!section: Agnus Dei II
!!!OMD: Agnus Dei II
0r	0r	0G	1G	0r
.	.	.	4G/	.
.	.	.	4A/	.
.	.	.	4B\	.
.	.	.	4c\	.
=57.	=57.	=57.	=57.	=57.
0r	0r	2.E/	2B\	0r
.	.	.	2G/	.
.	.	4F/	.	.
.	.	1D	2A/	.
.	.	.	2B\	.
=58	=58	=58	=58	=58
1r	0r	0C	2.c\	1e
.	.	.	4d\	.
2r	.	.	4e\	4e/
.	.	.	4c\	4f/
2C/	.	.	[2e\	4g/
.	.	.	.	4a/
=59.	=59.	=59.	=59.	=59.
4C/	0r	0r	2e\]	2g/
4D\	.	.	.	.
4E\	.	.	4d\	4f/
4F\	.	.	4c\	4e/
1G	.	.	1B	2d/
.	.	.	.	2g/
=60	=60	=60	=60	=60
1C	1r	0r	2.c\	2e/
.	.	.	.	2g/
.	.	.	4d\	.
1r	2r	.	2e\	2a/
.	2F\	.	2f\	[2cc\
=61.	=61.	=61.	=61.	=61.
0r	4F\	1r	2c\	2cc\]
.	4G\	.	.	.
.	4A\	.	1f	4b\
.	4B\	.	.	4a/
.	1c	1C	.	1g
.	.	.	2e\	.
=62	=62	=62	=62	=62
1r	1F	1F	2f\	2a/
.	.	.	2d\	2f/
2r	1r	2E/	2e\	2g/
2D\	.	2D/	[2f\	[2a/
=63.	=63.	=63.	=63.	=63.
4D\	0r	1A	2f\]	2a/]
4E\	.	.	.	.
4F\	.	.	4e\	4g/
4G\	.	.	4d\	4f/
1A	.	1A	1c	2e/
.	.	.	.	2a/
=64	=64	=64	=64	=64
1D	1r	2B\	2.d\	2f/
.	.	2A/	.	2a/
.	.	.	4e\	.
1r	2r	2.d\	2f\	2b\
.	2G\	.	2g\	[2dd\
.	.	4c\	.	.
=65.	=65.	=65.	=65.	=65.
0r	4G\	4B\	2d\	2dd\]
.	4A\	4A/	.	.
.	4B\	2G/	1g	4cc\
.	4c\	.	.	4b\
.	1d	1D	.	1a
.	.	.	2f#i\	.
=66	=66	=66	=66	=66
2r	1G	2r	0g	0b
2GG/	.	2G/	.	.
2.GG/	1r	2.G/	.	.
4AA/	.	4F/	.	.
=67.	=67.	=67.	=67.	=67.
2BB/	0r	2D/	2r	0r
2.C/	.	2.E/	2g\	.
.	.	.	2.g\	.
4D\	.	4F/	.	.
4E\	.	4G/	.	.
4F\	.	4A/	4f\	.
=68	=68	=68	=68	=68
1G	2r	2B\	2d\	0r
.	2C/	1c	1g	.
2G\	2.C/	.	.	.
[2E\	.	4B\	[2g\	.
.	4D\	4A/	.	.
=69.	=69.	=69.	=69.	=69.
2E\]	2E\	2G/	2g\]	0r
4D\	2.F\	1A	4f\	.
4C/	.	.	4e\	.
1BB	.	.	2.d\	.
.	4G\	.	.	.
.	4A\	2G/	.	.
.	4B\	.	4e\	.
=70	=70	=70	=70	=70
0AA	1c	0A	2f\	0r
.	.	.	2e\	.
.	2c\	.	4A/	.
.	.	.	4B\	.
.	[2A\	.	4c\	.
.	.	.	4d\	.
=71.	=71.	=71.	=71.	=71.
0r	2A\]	0r	4e\	0r
.	.	.	4A/	.
.	4G\	.	1d	.
.	4F\	.	.	.
.	1E	.	.	.
.	.	.	2c#i\	.
=72	=72	=72	=72	=72
2r	0D	2r	0d	0r
2GG/	.	2B\	.	.
2.GG/	.	2.B\	.	.
4AA/	.	4c\	.	.
=73.	=73.	=73.	=73.	=73.
2BB/	0r	2d\	2r	0r
2.C/	.	2.G/	2g\	.
.	.	.	2.g\	.
4D\	.	4F/	.	.
4E\	.	4G/	.	.
4F\	.	4A/	4f\	.
=74	=74	=74	=74	=74
1G	2r	2B\	2d\	0r
.	2C/	1c	1g	.
2G\	2.C/	.	.	.
[2E\	.	4B\	[2g\	.
.	4D\	4A/	.	.
=75.	=75.	=75.	=75.	=75.
2E\]	2E\	2G/	2g\]	0r
4D\	2.F\	1A	4f\	.
4C/	.	.	4e\	.
1BB	.	.	2.d\	.
.	4G\	.	.	.
.	4A\	2G/	.	.
.	4B\	.	4e\	.
=76	=76	=76	=76	=76
[0AA	1c	0A	2f\	0r
.	.	.	2.e\	.
.	2c\	.	.	.
.	.	.	4d\	.
.	[2A\	.	4c\	.
.	.	.	4B\	.
=77.	=77.	=77.	=77.	=77.
0AA]	2A\]	1r	2A/	0r
.	4G\	.	1d	.
.	4F\	.	.	.
.	1E	1A	.	.
.	.	.	2c#i\	.
=78	=78	=78	=78	=78
0r	[0D	2A/	0d	1r
.	.	2A/	.	.
.	.	2.F/	.	1a
.	.	4E/	.	.
=79.	=79.	=79.	=79.	=79.
0r	0D]	2D/	0r	2a/
.	.	2A/	.	2a/
.	.	2B-i\	.	2.f/
.	.	2A/	.	.
.	.	.	.	4e/
=80	=80	=80	=80	=80
0r	0r	4B-i\	0r	2d/
.	.	4A/	.	.
.	.	4G/	.	2a/
.	.	4F/	.	.
.	.	2G/	.	2b-i\
.	.	2F/	.	[2a/
=81.	=81.	=81.	=81.	=81.
0r	0r	1D	0r	2a/]
.	.	.	.	4g/
.	.	.	.	4f/
.	.	1E	.	1g
=82	=82	=82	=82	=82
0A	0r	0D	0r	1f
.	.	.	.	2d/
.	.	.	.	[2f/
=83.	=83.	=83.	=83.	=83.
2.F\	0r	0r	0r	4f/]
.	.	.	.	4e/
.	.	.	.	1d
4G\	.	.	.	.
1E	.	.	.	.
.	.	.	.	2c#i/
=84	=84	=84	=84	=84
2D\	0d	0r	0r	2d/
2D\	.	.	.	2f/
2G\	.	.	.	2g/
2F\	.	.	.	[2a/
=85.	=85.	=85.	=85.	=85.
1G	2.B\	0r	0r	2a/]
.	.	.	.	1g
.	4c\	.	.	.
1D	1A	.	.	.
.	.	.	.	2f#i/
=86	=86	=86	=86	=86
1GG	2G\	0r	0g	2g/
.	2G\	.	.	2b\
1r	2c\	.	.	2cc\
.	2B\	.	.	[2dd\
=87.	=87.	=87.	=87.	=87.
0r	1c	1r	2.e\	4dd\]
.	.	.	.	4cc\
.	.	.	.	1cc
.	.	.	4f\	.
.	1G	2r	1d	.
.	.	2d\	.	2b\
=88	=88	=88	=88	=88
0r	1C	1e	1c	0cc
.	1r	1c	2r	.
.	.	.	2e\	.
=89.	=89.	=89.	=89.	=89.
0r	0r	2r	4f\	0r
.	.	.	4e\	.
.	.	2A/	4d\	.
.	.	.	4c\	.
.	.	4B-i\	2d\	.
.	.	4A/	.	.
.	.	4G/	[2g\	.
.	.	4F/	.	.
=90	=90	=90	=90	=90
1r	0r	2G/	4g\]	0r
.	.	.	4f\	.
.	.	1c	2e\	.
2r	.	.	1d	.
2G\	.	2B\	.	.
=91.	=91.	=91.	=91.	=91.
1A	0r	[0c	0c	0r
1F	.	.	.	.
=92	=92	=92	=92	=92
2r	1r	0c]	0r	2r
2E\	.	.	.	2g/
2.F\	2r	.	.	1a
.	2c\	.	.	.
4E\	.	.	.	.
=93.	=93.	=93.	=93.	=93.
4D\	1d	0r	0r	1f
4E\	.	.	.	.
4F\	.	.	.	.
4D\	.	.	.	.
4E\	1B	.	.	2r
4F\	.	.	.	.
[2G\	.	.	.	2g/
=94	=94	=94	=94	=94
2G\]	2r	0r	0r	1a
2F#i\	2A\	.	.	.
1G	2.B\	.	.	2d/
.	.	.	.	[2g/
.	4A\	.	.	.
=95.	=95.	=95.	=95.	=95.
2G\	4G\	0r	0r	2g/]
.	4A\	.	.	.
2r	4B\	.	.	4f/
.	4G\	.	.	4e/
1r	4A\	.	.	4f/
.	4B\	.	.	4e/
.	[2c\	.	.	4d/
.	.	.	.	4c/
=96	=96	=96	=96	=96
2r	2c\]	1r	0r	1d
2G\	2B\	.	.	.
1A	1c	2r	.	1c
.	.	2c\	.	.
=97.	=97.	=97.	=97.	=97.
1F	0r	1d	0r	1r
2r	.	1B	.	2r
2E\	.	.	.	2g/
=98	=98	=98	=98	=98
2.F\	2r	1.A	0r	1a
.	2c\	.	.	.
4E\	.	.	.	.
4D\	1d	.	.	1f
4E\	.	.	.	.
4F\	.	2F/	.	.
4D\	.	.	.	.
=99.	=99.	=99.	=99.	=99.
4E\	1B	2G/	0r	2r
4F\	.	.	.	.
1G	.	2B\	.	2g/
.	2r	1A	.	1a
2F#i\	2A\	.	.	.
=100	=100	=100	=100	=100
0G	2.B\	0G	0r	2d/
.	.	.	.	1g
.	4A\	.	.	.
.	4G\	.	.	.
.	4A\	.	.	.
.	4B\	.	.	4f/
.	4G\	.	.	4e/
=101.	=101.	=101.	=101.	=101.
0r	4A\	0r	0r	4f/
.	4B\	.	.	4e/
.	1c	.	.	4d/
.	.	.	.	4c/
.	.	.	.	1d
.	2B\	.	.	.
=102	=102	=102	=102	=102
0C	0c	0G	0e	1c
.	.	.	.	[1cc
=103.	=103.	=103.	=103.	=103.
0C	0r	0E	0e	1cc]
.	.	.	.	1cc
=104	=104	=104	=104	=104
[0D	0F	0A	0f	[0a
=105.	=105.	=105.	=105.	=105.
0D]	0F	0d	1f	0a]
.	.	.	[1d	.
=106	=106	=106	=106	=106
[0GG	[0G	[0B	1d]	0b
.	.	.	[1g	.
=107.	=107.	=107.	=107.	=107.
0GG]	0G]	0B]	2g\]	0dd
.	.	.	4f\	.
.	.	.	4e\	.
.	.	.	1d	.
=108	=108	=108	=108	=108
1r	[0C	1c	0e	1.cc
[1C	.	1G	.	.
.	.	.	.	4b\
.	.	.	.	4a/
=109.	=109.	=109.	=109.	=109.
1C]	0C]	0c	0e	1g
1C	.	.	.	1cc
=110	=110	=110	=110	=110
1.D	1r	1.F	0f	1a
.	[1F	.	.	1dd
4C/	.	2G/	.	.
4BB/	.	.	.	.
=111.	=111.	=111.	=111.	=111.
1AA	1F]	1A	1r	1cc
1D	1F	1D	[1d	1a
=112	=112	=112	=112	=112
0GG	1.G	1r	1d]	0b
.	.	1G	[1d	.
.	4F\	.	.	.
.	4E\	.	.	.
=113.	=113.	=113.	=113.	=113.
1r	1D	1A	1d]	1r
1G	1G	1B	1d	1g
=114	=114	=114	=114	=114
1G	0C	[0c	1e	1g
1E	.	.	1g	1g
=115.	=115.	=115.	=115.	=115.
2.F\	1r	0c]	0f	2.a/
4E\	.	.	.	4g/
2F\	1c	.	.	2a/
2G\	.	.	.	2b\
=116	=116	=116	=116	=116
1.A	1c	0r	1e	1.cc
.	1A	.	2e\	.
4G\	.	.	[2f\	4b\
4F\	.	.	.	4a/
=117.	=117.	=117.	=117.	=117.
4G\	2.B\	0r	4f\]	1g
4F\	.	.	4e\	.
4E\	.	.	2d\	.
4D\	4A\	.	.	.
1E	2B\	.	1G	1g
.	2c\	.	.	.
=118	=118	=118	=118	=118
1D	1.d	1r	0A	1f
1r	.	[1F	.	4f/
.	.	.	.	4g/
.	4c\	.	.	4a/
.	4B\	.	.	4b-i\
=119.	=119.	=119.	=119.	=119.
1r	4c\	2F/]	1r	2a/
.	4B\	.	.	.
.	4A\	2G/	.	1g
.	4G\	.	.	.
2r	1A	1D	2r	.
2D\	.	.	2d\	2f#i/
=120	=120	=120	=120	=120
3%2EV	1G	3G/V	3c\V	0g
.	.	3G/	3d\	.
3E\Z	.	3G/Z	3e\Z	.
3C/V	1r	3E/V	3A/V	.
3D\	.	3F/	3B\	.
3E\Z	.	3G/Z	3c\Z	.
=121.	=121.	=121.	=121.	=121.
3.AA/V	1r	3C/V	3d\V	1r
.	.	3D/	3.e\	.
6BB/Z	.	.	.	.
3C/V	.	3E/Z	.	.
.	.	.	6d\Z	.
3D\	2r	3F/V	3%2dV	2r
3%2EZ	.	3G/	.	.
.	2G\	.	.	2g/
.	.	3E/Z	3c#i\Z	.
=122	=122	=122	=122	=122
0D	3%2AV	2F/	0d	3f/V
.	.	.	.	3g/
.	.	2D/	.	.
.	3A\Z	.	.	3a/Z
.	3F\V	1D	.	3d/V
.	3G\	.	.	3e/
.	3A\Z	.	.	[3f/Z
=123.	=123.	=123.	=123.	=123.
0D	3.D\V	1r	1r	3.f/]V
.	6E\	.	.	6g/
.	3F\Z	.	.	3a/Z
.	3G\V	2r	1d	3%2gV
.	3%2AZ	.	.	.
.	.	2A/	.	.
.	.	.	.	3f#i/Z
=124	=124	=124	=124	=124
2r	[0Gl	3B\V	3%2dV	0g
.	.	3c\	.	.
2GG/	.	.	.	.
.	.	3d\Z	3d\Z	.
2GG/	.	3G/V	3B\V	.
.	.	3A/	3c\	.
2GG/	.	.	.	.
.	.	3B\Z	3d\Z	.
=125.	=125.	=125.	=125.	=125.
1C	0G_	3E/V	3e\V	[0gl
.	.	3F/	3%2cZ	.
.	.	3G/Z	.	.
1BB	.	2D/	[1d	.
.	.	[2G/	.	.
=126	=126	=126	=126	=126
0GGl	0G]	2G/]	2d\]	0g]
.	.	2D/	2B\	.
.	.	1Dl	1Bl	.
==	==	==	==	==
*-	*-	*-	*-	*-
!!!RDF**kern: l=long note in original notation
!!!RDF**kern: i=editorial accidental
!!!RDF**kern: V=start of tuplet marker
!!!RDF**kern: Z=end of tuplet marker
!!!ENC:	Chris Gage 10-23-2012
!!!END:	2012/11/11/
!!!EED:	Jesse Rodin
!!!EEV:	2012/12/15/
!!!ONB:	Translated from MusicXML and edited on 2012/12/15/ by Craig Sapp
!!muse2ps: T^@{OPR}^u^@{ONM}{. }@{OTL}^C^@{COM}^i2I150v95,95,95,95,130Q16
